Newaita-dark/apps/22/accessories-notes.svg

<svg height="22pt" viewBox="0 0 22 22" width="22pt" xmlns="http://www.w3.org/2000/svg" xmlns:xlink="http://www.w3.org/1999/xlink"><linearGradient id="a" gradientUnits="userSpaceOnUse" x1="10.9151136" x2="10.9151136" y1="19.27333715" y2="20.18293042919"><stop offset="0" stop-opacity=".27451"/><stop offset="1" stop-opacity="0"/></linearGradient><linearGradient id="b"><stop offset="0" stop-opacity=".313726"/><stop offset=".222222" stop-opacity=".27451"/><stop offset="1" stop-opacity="0"/></linearGradient><radialGradient id="c" cx="450.908936" cy="189.579361" gradientTransform="matrix(.00000012 -.0537161 -.0966889 -.00000007 34.475434 43.721791)" gradientUnits="userSpaceOnUse" r="21.166656" xlink:href="#b"/><radialGradient id="d" cx="450.908936" cy="189.579361" gradientTransform="matrix(-.00000012 .0537161 .0966889 .00000007 -12.645221 -5.175143)" gradientUnits="userSpaceOnUse" r="21.166656" xlink:href="#b"/><radialGradient id="e" cx="450.908936" cy="189.579361" gradientTransform="matrix(-.00000012 -.0537161 .0966889 -.00000007 -12.645221 43.721791)" gradientUnits="userSpaceOnUse" r="21.166656" xlink:href="#b"/><radialGradient id="f" cx="450.908936" cy="189.579361" gradientTransform="matrix(.00000012 .0537161 -.0966889 .00000007 34.475433 -5.175142)" gradientUnits="userSpaceOnUse" r="21.166656" xlink:href="#b"/><linearGradient id="g"><stop offset="0" stop-color="#ffcc80"/><stop offset="1" stop-color="#ffb74d"/></linearGradient><linearGradient id="h" gradientTransform="matrix(.0518029 0 0 .149471 -4.024634 23.128427)" gradientUnits="userSpaceOnUse" x1="323.513245" x2="323.513245" xlink:href="#g" y1="-141.414581" y2="-25.791676"/><linearGradient id="i" gradientUnits="userSpaceOnUse" x1="285.75" x2="285.75" xlink:href="#g" y1="-31.083334" y2="-84"/><linearGradient id="j" gradientUnits="userSpaceOnUse" x1="960" x2="960" y1="1695.118164" y2="175.118134"><stop offset="0" stop-color="#424242"/><stop offset="1" stop-color="#616161"/></linearGradient><path d="m5.457031 19.273438h10.914063v.910156h-10.914063zm0 0" fill="url(#a)"/><path d="m16.371094 19.273438h1.820312v-.910157h-1.820312zm0 0" fill="url(#c)"/><path d="m5.457031 19.273438h-1.820312v.910156h1.820312zm0 0" fill="url(#d)"/><path d="m5.457031 19.273438h-1.820312v-.910157h1.820312zm0 0" fill="url(#e)"/><path d="m16.371094 19.273438h1.820312v.910156h-1.820312zm0 0" fill="url(#f)"/><path d="m4.546875 1.992188h12.734375c.503906 0 .910156.40625.910156.910156v15.460937c0 .503907-.40625.910157-.910156.910157h-12.734375c-.5 0-.910156-.40625-.910156-.910157v-15.460937c0-.503906.410156-.910156.910156-.910156zm0 0" fill="url(#h)"/><path d="m3.636719 6.085938.910156 1.363281.457031-.457031.910156.910156.90625-.910156.457032.457031.453125-.457031.910156.910156.910156-.910156.453125.457031.457032-.457031.453124.457031.457032-.457031.910156 1.367187.90625-.910156.457031.453125.910157-.910156.453124.457031.910157-.910157.453125.910157.457031-.457031.453125.910156.910156-1.363282v-.453124zm0 0" fill-opacity=".235294"/><path d="m84.628282-84.012509 21.179796 31.724244 10.635348-10.544448 21.179795 21.179796 21.088895-21.179796 10.635348 10.544448 10.544448-10.544448 21.179796 21.179796 21.179795-21.179796 10.544448 10.544448 10.635348-10.544448 10.544448 10.544448 10.635348-10.544448 21.179795 31.724243 21.088895-21.179795 10.635348 10.635348 21.179796-21.179796 10.544448 10.544448 21.179795-21.088896 10.544448 21.088896 10.635348-10.544448 10.544447 21.179796 21.179796-31.724244v-10.635348zm0 0" fill="url(#i)" stroke="#212121" stroke-width="3" transform="matrix(.0429729 0 0 .0429729 0 9.239163)"/><path d="m4.546875 2.445312c-.503906 0-.910156.40625-.910156.910157v2.730469h14.554687v-2.730469c0-.503907-.40625-.910157-.910156-.910157zm0 0" fill-opacity=".235294"/><path d="m399.904566 175.215918c-44.31932 0-80.049625 35.730305-80.049625 80.049626v239.805315h1280.106886v-239.805315c0-44.319321-35.730305-80.049626-80.049626-80.049626zm0 0" fill="url(#j)" stroke="#212121" stroke-linecap="round" stroke-linejoin="round" stroke-width="11.338583" transform="scale(.0113699)"/><path d="m4.546875 19.222656c-.503906 0-.910156-.40625-.910156-.910156v-.113281c0 .503906.40625.910156.910156.910156h12.734375c.503906 0 .910156-.40625.910156-.910156v.113281c0 .503906-.40625.910156-.910156.910156zm0 0" fill-opacity=".196078"/><path d="m4.546875 2.042969c-.503906 0-.910156.40625-.910156.910156v.113281c0-.503906.40625-.910156.910156-.910156h12.734375c.503906 0 .910156.40625.910156.910156v-.113281c0-.503906-.40625-.910156-.910156-.910156zm0 0" fill="#fff" fill-opacity=".392157"/><path d="m4.546875 1.925781c-.539063 0-.972656.4375-.972656.976563v15.460937c0 .539063.433593.972657.972656.972657h12.734375c.539062 0 .976562-.433594.976562-.972657v-15.460937c0-.539063-.4375-.976563-.976562-.976563zm0 .128907h12.734375c.46875 0 .847656.375.847656.847656v15.460937c0 .46875-.378906.84375-.847656.84375h-12.734375c-.46875 0-.84375-.375-.84375-.84375v-15.460937c0-.472656.375-.847656.84375-.847656zm0 0" fill="#212121"/></svg>

<?xml version="1.0" encoding="UTF-8"?>
<svg xmlns="http://www.w3.org/2000/svg" xmlns:xlink="http://www.w3.org/1999/xlink" width="22pt" height="22pt" viewBox="0 0 22 22" version="1.1">
<defs>
<linearGradient id="linear0" gradientUnits="userSpaceOnUse" x1="254" y1="233.5" x2="254" y2="254.666672" gradientTransform="matrix(0.0429729,0,0,0.0429729,-0.00000262285,9.239165)">
<stop offset="0" style="stop-color:rgb(0%,0%,0%);stop-opacity:0.27451;"/>
<stop offset="1" style="stop-color:rgb(0%,0%,0%);stop-opacity:0;"/>
</linearGradient>
<radialGradient id="radial0" gradientUnits="userSpaceOnUse" cx="450.908936" cy="189.579361" fx="450.908936" fy="189.579361" r="21.166656" gradientTransform="matrix(0.000000119742,-0.0537161,-0.0966889,-0.0000000698078,34.475434,43.721791)">
<stop offset="0" style="stop-color:rgb(0%,0%,0%);stop-opacity:0.313726;"/>
<stop offset="0.222222" style="stop-color:rgb(0%,0%,0%);stop-opacity:0.27451;"/>
<stop offset="1" style="stop-color:rgb(0%,0%,0%);stop-opacity:0;"/>
</radialGradient>
<radialGradient id="radial1" gradientUnits="userSpaceOnUse" cx="450.908936" cy="189.579361" fx="450.908936" fy="189.579361" r="21.166656" gradientTransform="matrix(-0.000000119742,0.0537161,0.0966889,0.0000000698078,-12.645221,-5.175143)">
<stop offset="0" style="stop-color:rgb(0%,0%,0%);stop-opacity:0.313726;"/>
<stop offset="0.222222" style="stop-color:rgb(0%,0%,0%);stop-opacity:0.27451;"/>
<stop offset="1" style="stop-color:rgb(0%,0%,0%);stop-opacity:0;"/>
</radialGradient>
<radialGradient id="radial2" gradientUnits="userSpaceOnUse" cx="450.908936" cy="189.579361" fx="450.908936" fy="189.579361" r="21.166656" gradientTransform="matrix(-0.000000119742,-0.0537161,0.0966889,-0.0000000698078,-12.645221,43.721791)">
<stop offset="0" style="stop-color:rgb(0%,0%,0%);stop-opacity:0.313726;"/>
<stop offset="0.222222" style="stop-color:rgb(0%,0%,0%);stop-opacity:0.27451;"/>
<stop offset="1" style="stop-color:rgb(0%,0%,0%);stop-opacity:0;"/>
</radialGradient>
<radialGradient id="radial3" gradientUnits="userSpaceOnUse" cx="450.908936" cy="189.579361" fx="450.908936" fy="189.579361" r="21.166656" gradientTransform="matrix(0.000000119742,0.0537161,-0.0966889,0.0000000698078,34.475433,-5.175142)">
<stop offset="0" style="stop-color:rgb(0%,0%,0%);stop-opacity:0.313726;"/>
<stop offset="0.222222" style="stop-color:rgb(0%,0%,0%);stop-opacity:0.27451;"/>
<stop offset="1" style="stop-color:rgb(0%,0%,0%);stop-opacity:0;"/>
</radialGradient>
<linearGradient id="linear1" gradientUnits="userSpaceOnUse" x1="323.513245" y1="-141.414581" x2="323.513245" y2="-25.791676" gradientTransform="matrix(0.0518029,0,0,0.149471,-4.024634,23.128427)">
<stop offset="0" style="stop-color:rgb(100%,80.000001%,50.196081%);stop-opacity:1;"/>
<stop offset="1" style="stop-color:rgb(100%,71.764708%,30.19608%);stop-opacity:1;"/>
</linearGradient>
<linearGradient id="linear2" gradientUnits="userSpaceOnUse" x1="285.75" y1="-31.083334" x2="285.75" y2="-84" >
<stop offset="0" style="stop-color:rgb(100%,80.000001%,50.196081%);stop-opacity:1;"/>
<stop offset="1" style="stop-color:rgb(100%,71.764708%,30.19608%);stop-opacity:1;"/>
</linearGradient>
<linearGradient id="linear3" gradientUnits="userSpaceOnUse" x1="960" y1="1695.118164" x2="960" y2="175.118134" >
<stop offset="0" style="stop-color:rgb(25.882354%,25.882354%,25.882354%);stop-opacity:1;"/>
<stop offset="1" style="stop-color:rgb(38.039216%,38.039216%,38.039216%);stop-opacity:1;"/>
</linearGradient>
</defs>
<g id="surface1">
<path style=" stroke:none;fill-rule:nonzero;fill:url(#linear0);" d="M 5.457031 19.273438 L 16.371094 19.273438 L 16.371094 20.183594 L 5.457031 20.183594 Z M 5.457031 19.273438 "/>
<path style=" stroke:none;fill-rule:nonzero;fill:url(#radial0);" d="M 16.371094 19.273438 L 18.191406 19.273438 L 18.191406 18.363281 L 16.371094 18.363281 Z M 16.371094 19.273438 "/>
<path style=" stroke:none;fill-rule:nonzero;fill:url(#radial1);" d="M 5.457031 19.273438 L 3.636719 19.273438 L 3.636719 20.183594 L 5.457031 20.183594 Z M 5.457031 19.273438 "/>
<path style=" stroke:none;fill-rule:nonzero;fill:url(#radial2);" d="M 5.457031 19.273438 L 3.636719 19.273438 L 3.636719 18.363281 L 5.457031 18.363281 Z M 5.457031 19.273438 "/>
<path style=" stroke:none;fill-rule:nonzero;fill:url(#radial3);" d="M 16.371094 19.273438 L 18.191406 19.273438 L 18.191406 20.183594 L 16.371094 20.183594 Z M 16.371094 19.273438 "/>
<path style=" stroke:none;fill-rule:nonzero;fill:url(#linear1);" d="M 4.546875 1.992188 L 17.28125 1.992188 C 17.785156 1.992188 18.191406 2.398438 18.191406 2.902344 L 18.191406 18.363281 C 18.191406 18.867188 17.785156 19.273438 17.28125 19.273438 L 4.546875 19.273438 C 4.046875 19.273438 3.636719 18.867188 3.636719 18.363281 L 3.636719 2.902344 C 3.636719 2.398438 4.046875 1.992188 4.546875 1.992188 Z M 4.546875 1.992188 "/>
<path style=" stroke:none;fill-rule:nonzero;fill:rgb(0%,0%,0%);fill-opacity:0.235294;" d="M 3.636719 6.085938 L 4.546875 7.449219 L 5.003906 6.992188 L 5.914062 7.902344 L 6.820312 6.992188 L 7.277344 7.449219 L 7.730469 6.992188 L 8.640625 7.902344 L 9.550781 6.992188 L 10.003906 7.449219 L 10.460938 6.992188 L 10.914062 7.449219 L 11.371094 6.992188 L 12.28125 8.359375 L 13.1875 7.449219 L 13.644531 7.902344 L 14.554688 6.992188 L 15.007812 7.449219 L 15.917969 6.539062 L 16.371094 7.449219 L 16.828125 6.992188 L 17.28125 7.902344 L 18.191406 6.539062 L 18.191406 6.085938 Z M 3.636719 6.085938 "/>
<path style="fill-rule:nonzero;fill:url(#linear2);stroke-width:3;stroke-linecap:butt;stroke-linejoin:miter;stroke:rgb(12.941177%,12.941177%,12.941177%);stroke-opacity:1;stroke-miterlimit:4;" d="M 84.628282 -84.012509 L 105.808078 -52.288265 L 116.443426 -62.832713 L 137.623221 -41.652917 L 158.712116 -62.832713 L 169.347464 -52.288265 L 179.891912 -62.832713 L 201.071708 -41.652917 L 222.251503 -62.832713 L 232.795951 -52.288265 L 243.431299 -62.832713 L 253.975747 -52.288265 L 264.611095 -62.832713 L 285.79089 -31.10847 L 306.879785 -52.288265 L 317.515133 -41.652917 L 338.694929 -62.832713 L 349.239377 -52.288265 L 370.419172 -73.377161 L 380.96362 -52.288265 L 391.598968 -62.832713 L 402.143415 -41.652917 L 423.323211 -73.377161 L 423.323211 -84.012509 Z M 84.628282 -84.012509 " transform="matrix(0.0429729,0,0,0.0429729,0,9.239163)"/>
<path style=" stroke:none;fill-rule:nonzero;fill:rgb(0%,0%,0%);fill-opacity:0.235294;" d="M 4.546875 2.445312 C 4.042969 2.445312 3.636719 2.851562 3.636719 3.355469 L 3.636719 6.085938 L 18.191406 6.085938 L 18.191406 3.355469 C 18.191406 2.851562 17.785156 2.445312 17.28125 2.445312 Z M 4.546875 2.445312 "/>
<path style="fill-rule:nonzero;fill:url(#linear3);stroke-width:11.338583;stroke-linecap:round;stroke-linejoin:round;stroke:rgb(12.941177%,12.941177%,12.941177%);stroke-opacity:1;stroke-miterlimit:4;" d="M 399.904566 175.215918 C 355.585246 175.215918 319.854941 210.946223 319.854941 255.265544 L 319.854941 495.070859 L 1599.961827 495.070859 L 1599.961827 255.265544 C 1599.961827 210.946223 1564.231522 175.215918 1519.912201 175.215918 Z M 399.904566 175.215918 " transform="matrix(0.0113699,0,0,0.0113699,0,0)"/>
<path style=" stroke:none;fill-rule:nonzero;fill:rgb(0%,0%,0%);fill-opacity:0.196078;" d="M 4.546875 19.222656 C 4.042969 19.222656 3.636719 18.816406 3.636719 18.3125 L 3.636719 18.199219 C 3.636719 18.703125 4.042969 19.109375 4.546875 19.109375 L 17.28125 19.109375 C 17.785156 19.109375 18.191406 18.703125 18.191406 18.199219 L 18.191406 18.3125 C 18.191406 18.816406 17.785156 19.222656 17.28125 19.222656 Z M 4.546875 19.222656 "/>
<path style=" stroke:none;fill-rule:nonzero;fill:rgb(100%,100%,100%);fill-opacity:0.392157;" d="M 4.546875 2.042969 C 4.042969 2.042969 3.636719 2.449219 3.636719 2.953125 L 3.636719 3.066406 C 3.636719 2.5625 4.042969 2.15625 4.546875 2.15625 L 17.28125 2.15625 C 17.785156 2.15625 18.191406 2.5625 18.191406 3.066406 L 18.191406 2.953125 C 18.191406 2.449219 17.785156 2.042969 17.28125 2.042969 Z M 4.546875 2.042969 "/>
<path style=" stroke:none;fill-rule:nonzero;fill:rgb(12.941177%,12.941177%,12.941177%);fill-opacity:1;" d="M 4.546875 1.925781 C 4.007812 1.925781 3.574219 2.363281 3.574219 2.902344 L 3.574219 18.363281 C 3.574219 18.902344 4.007812 19.335938 4.546875 19.335938 L 17.28125 19.335938 C 17.820312 19.335938 18.257812 18.902344 18.257812 18.363281 L 18.257812 2.902344 C 18.257812 2.363281 17.820312 1.925781 17.28125 1.925781 Z M 4.546875 2.054688 L 17.28125 2.054688 C 17.75 2.054688 18.128906 2.429688 18.128906 2.902344 L 18.128906 18.363281 C 18.128906 18.832031 17.75 19.207031 17.28125 19.207031 L 4.546875 19.207031 C 4.078125 19.207031 3.703125 18.832031 3.703125 18.363281 L 3.703125 2.902344 C 3.703125 2.429688 4.078125 2.054688 4.546875 2.054688 Z M 4.546875 2.054688 "/>
</g>
</svg>
